images/header/logo-main.svg

<svg width="178" height="45" viewBox="0 0 178 45" fill="none" xmlns="http://www.w3.org/2000/svg">
<path d="M3.41551 26.8459C4.87557 26.7956 6 26.5 6 26.5C6 26.5 4.87557 26.2044 3.41551 26.1533C3.35522 24.9372 3.0005 24 3.0005 24C3.0005 24 2.64478 24.9372 2.58449 26.1533C1.12343 26.2044 0 26.5 0 26.5C0 26.5 1.12343 26.7956 2.58449 26.8459C2.64478 28.0637 3.0005 29 3.0005 29C3.0005 29 3.35622 28.0637 3.41551 26.8459Z" fill="#CDA274"/>
<path d="M9.55418 30.5538C11.5009 30.4732 13 30 13 30C13 30 11.5009 29.5268 9.55418 29.4462C9.47368 27.4993 8.99951 26 8.99951 26C8.99951 26 8.52632 27.4993 8.44582 29.4462C6.49908 29.5268 5 30 5 30C5 30 6.49908 30.4732 8.44582 30.5538C8.52632 32.5007 8.99951 34 8.99951 34C8.99951 34 9.47368 32.5007 9.55418 30.5538V30.5538Z" fill="#CDA274"/>
<path d="M21.2767 16.2767C22.2499 16.2367 23 16 23 16C23 16 22.2509 15.7633 21.2767 15.7223C21.2367 14.7491 21 14 21 14C21 14 20.7633 14.7501 20.7233 15.7223C19.7491 15.7633 19 16 19 16C19 16 19.7491 16.2367 20.7233 16.2767C20.7633 17.2509 21 18 21 18C21 18 21.2367 17.2509 21.2767 16.2767Z" fill="#CDA274"/>
<path d="M24.8464 18.846C26.0634 18.7959 27 18.5 27 18.5C27 18.5 26.0634 18.2041 24.8464 18.154C24.7963 16.9368 24.4995 16 24.4995 16C24.4995 16 24.2037 16.9377 24.1536 18.154C22.9366 18.2041 22 18.5 22 18.5C22 18.5 22.9366 18.7959 24.1536 18.846C24.2037 20.0632 24.4995 21 24.4995 21C24.4995 21 24.7953 20.0632 24.8464 18.846Z" fill="#CDA274"/>
<path d="M9.44801 11.0439C9.07747 11.1493 8.70693 11.2647 8.33966 11.3912C8.66976 11.2065 9.00751 11.0309 9.35292 10.8613L7.86528 8C4.64626 11.3922 2.61866 15.5862 2 20C3.55978 16.7172 6.30004 13.8881 10 12.1057L9.44801 11.0439V11.0439Z" fill="#CDA274"/>
<path d="M15.1311 2.26817C14.0208 2.81545 12.9765 3.44462 12 4.1457L13.7216 8.90544C21.8098 6.91506 30.4512 10.8199 34.2379 18.7245C38.6053 27.8405 34.861 38.8231 25.876 43.2533C25.3504 43.5129 24.8179 43.7436 24.2814 43.9474C29.1105 40.9653 32.1373 35.9639 32.8096 30.561C31.6097 34.8393 28.6883 38.6004 24.435 40.6986C20.8766 42.4533 16.9925 42.7449 13.443 41.8072C18.9316 45.1308 25.7392 45.9927 32.0724 43.7616C40.6084 38.0002 43.8459 26.5832 39.2402 16.9688C34.5076 7.09282 23.1878 2.64368 13.2521 6.41771C13.8151 6.06917 14.3988 5.7456 15.0042 5.44699C25.3406 0.349693 37.7923 4.71895 42.8153 15.2062C47.6582 25.3159 43.8291 37.4189 34.2881 42.8428C34.3639 42.8059 34.4397 42.7699 34.5155 42.733C45.5291 37.3021 50.117 23.8408 44.7643 12.6675C39.4115 1.49319 26.1448 -3.16269 15.1311 2.26817Z" fill="#CDA274"/>
<path d="M7.87422 3.0884C6.93439 3.48161 6.71857 5.07314 7.39187 6.64403L16.7027 25.9213L15.3322 26.4924C14.82 26.7048 14.5803 27.2887 14.7961 27.7949C14.9135 28.0702 15.1432 28.2658 15.4098 28.3523C16.7484 32.8526 13.2914 38.6722 12.1049 40.4839C13.0478 40.7287 14.0015 40.886 14.9553 40.9587C16.814 38.5906 17.8295 35.5805 17.6345 32.4063C17.7101 32.7406 17.7777 33.0787 17.8275 33.4238C18.2153 36.1242 17.7101 38.7449 16.5395 41C18.0393 40.9666 19.5231 40.7257 20.9483 40.2863C21.3899 38.7725 21.553 37.1603 21.3859 35.5147C21.4754 35.845 21.555 36.1812 21.6176 36.5243C21.8354 37.7019 21.8802 38.8708 21.7718 40.0071C23.004 39.553 24.1825 38.9484 25.2795 38.1984C25.3421 35.3741 24.462 32.5253 22.6072 30.1542C22.8608 30.3882 23.1084 30.631 23.3461 30.8885C25.0557 32.7465 26.1 34.9681 26.5027 37.2714C27.4167 36.5075 28.2561 35.6326 29 34.6506C28.7205 31.5029 23.6514 27.6789 20.9374 26.0274C21.0507 25.7837 21.0647 25.4956 20.9503 25.2292C20.7345 24.723 20.1437 24.4861 19.6325 24.6984L18.2362 25.2803L10.7932 5.2206C10.1209 3.6507 8.81305 2.69519 7.87521 3.0884H7.87422Z" fill="#292929"/>
<path d="M58.104 36.288C57.4427 36.288 56.888 36.064 56.44 35.616L64.408 24.448L56.856 13.856C57.2827 13.4933 57.8053 13.312 58.424 13.312C58.872 13.312 59.2773 13.3973 59.64 13.568C60.024 13.7387 60.3227 13.9733 60.536 14.272L65.912 21.984L65.176 22.976L65.4 23.136L71.608 14.272C71.8213 13.9733 72.1093 13.7387 72.472 13.568C72.856 13.3973 73.272 13.312 73.72 13.312C73.9973 13.312 74.2747 13.3653 74.552 13.472C74.8507 13.5573 75.096 13.6853 75.288 13.856L67.736 24.448L75.704 35.616C75.256 36.064 74.7013 36.288 74.04 36.288C73.656 36.288 73.2933 36.192 72.952 36C72.632 35.8293 72.3547 35.584 72.12 35.264L66.072 26.688L60.024 35.264C59.7893 35.584 59.5013 35.8293 59.16 36C58.84 36.192 58.488 36.288 58.104 36.288ZM81.5083 17.312C80.9109 17.312 80.4096 17.12 80.0043 16.736C79.5989 16.352 79.3963 15.872 79.3963 15.296C79.3963 14.72 79.5989 14.2507 80.0043 13.888C80.4096 13.504 80.9109 13.312 81.5083 13.312C82.0843 13.312 82.5749 13.504 82.9803 13.888C83.3856 14.2507 83.5883 14.72 83.5883 15.296C83.5883 15.872 83.3856 16.352 82.9803 16.736C82.5749 17.12 82.0843 17.312 81.5083 17.312ZM80.1003 21.76C80.1003 21.056 80.3243 20.544 80.7723 20.224C81.2416 19.8827 81.9456 19.712 82.8843 19.712V34.24C82.8843 34.944 82.6496 35.4667 82.1803 35.808C81.7323 36.128 81.0389 36.288 80.1003 36.288V21.76ZM88.0838 22.08C88.0838 20.5013 88.9691 19.712 90.7398 19.712V21.76C90.4624 22.0587 90.2384 22.3467 90.0677 22.624L90.1958 22.752C90.8784 21.792 91.6038 21.0453 92.3718 20.512C93.1398 19.9787 94.0251 19.712 95.0278 19.712C96.9691 19.712 98.3024 20.64 99.0278 22.496C100.244 20.64 101.865 19.712 103.892 19.712C105.406 19.712 106.569 20.224 107.38 21.248C108.212 22.2507 108.628 23.5733 108.628 25.216V34.24C108.628 34.944 108.393 35.4667 107.924 35.808C107.476 36.128 106.793 36.288 105.876 36.288V25.376C105.876 24.352 105.662 23.552 105.236 22.976C104.809 22.4 104.137 22.112 103.22 22.112C102.26 22.112 101.438 22.4427 100.756 23.104C100.073 23.744 99.7318 24.608 99.7318 25.696V34.24C99.7318 34.944 99.5078 35.4667 99.0598 35.808C98.6118 36.128 97.9291 36.288 97.0118 36.288V25.376C97.0118 24.352 96.7984 23.552 96.3718 22.976C95.9451 22.4 95.2731 22.112 94.3558 22.112C93.3744 22.112 92.5424 22.464 91.8598 23.168C91.1771 23.872 90.8358 24.736 90.8358 25.76V34.24C90.8358 34.944 90.6011 35.4667 90.1318 35.808C89.6838 36.128 89.0011 36.288 88.0838 36.288V22.08ZM117.084 16.256H109.276C109.276 14.4853 110.108 13.6 111.772 13.6H127.868C127.868 15.3707 127.036 16.256 125.372 16.256H120.092V33.792C120.092 34.6027 119.836 35.2213 119.324 35.648C118.812 36.0747 118.066 36.288 117.084 36.288V16.256ZM132.083 36.288C130.249 36.288 128.766 35.7973 127.635 34.816C126.526 33.8347 125.971 32.544 125.971 30.944C125.971 29.3227 126.558 28.0213 127.731 27.04C128.905 26.0373 130.451 25.536 132.371 25.536C134.419 25.536 136.105 26.2613 137.427 27.712L137.555 27.584C137.321 27.328 137.054 27.0613 136.755 26.784V25.44C136.755 24.352 136.414 23.5093 135.731 22.912C135.049 22.3147 134.078 22.016 132.819 22.016C130.579 22.016 128.979 22.9013 128.019 24.672C127.678 24.5013 127.39 24.2773 127.155 24C126.942 23.7013 126.835 23.4027 126.835 23.104C126.835 22.528 127.123 21.984 127.699 21.472C128.275 20.9387 129.033 20.512 129.971 20.192C130.931 19.872 131.934 19.712 132.979 19.712C135.006 19.712 136.595 20.2133 137.747 21.216C138.921 22.2187 139.507 23.6053 139.507 25.376V34.144C139.507 34.8907 139.294 35.4347 138.867 35.776C138.441 36.1173 137.769 36.288 136.851 36.288V34.784C137.299 34.3147 137.545 34.0373 137.587 33.952L137.459 33.824C136.073 35.4667 134.281 36.288 132.083 36.288ZM132.563 34.08C133.886 34.08 134.921 33.8027 135.667 33.248C136.435 32.6933 136.819 31.9253 136.819 30.944C136.819 29.9627 136.446 29.184 135.699 28.608C134.953 28.032 133.929 27.744 132.627 27.744C131.411 27.744 130.451 28.032 129.747 28.608C129.065 29.1627 128.723 29.9413 128.723 30.944C128.723 31.9467 129.054 32.7253 129.715 33.28C130.398 33.8133 131.347 34.08 132.563 34.08ZM149.157 36.288C148.069 36.288 147.045 36.128 146.085 35.808C145.125 35.4667 144.346 34.9867 143.749 34.368C143.173 33.7493 142.885 33.024 142.885 32.192C142.885 31.168 143.504 30.6133 144.741 30.528C144.954 31.7227 145.456 32.608 146.245 33.184C147.056 33.7387 148.08 34.016 149.317 34.016C150.554 34.016 151.514 33.8347 152.197 33.472C152.88 33.1093 153.221 32.5547 153.221 31.808C153.221 31.2747 153.082 30.848 152.805 30.528C152.528 30.1867 152.08 29.8987 151.461 29.664C150.864 29.408 150 29.1627 148.869 28.928C147.461 28.608 146.341 28.2667 145.509 27.904C144.677 27.5413 144.037 27.0613 143.589 26.464C143.162 25.8667 142.949 25.0773 142.949 24.096C142.949 23.264 143.205 22.5173 143.717 21.856C144.229 21.1733 144.933 20.6507 145.829 20.288C146.746 19.904 147.781 19.712 148.933 19.712C150 19.712 151.002 19.8613 151.941 20.16C152.901 20.4587 153.669 20.8853 154.245 21.44C154.842 21.9947 155.141 22.6347 155.141 23.36C155.141 23.8507 154.949 24.2453 154.565 24.544C154.181 24.8213 153.648 24.9813 152.965 25.024C152.901 24.0853 152.517 23.3493 151.813 22.816C151.13 22.2613 150.17 21.984 148.933 21.984C147.909 21.984 147.098 22.176 146.501 22.56C145.904 22.944 145.605 23.456 145.605 24.096C145.605 24.7787 145.882 25.2907 146.437 25.632C147.013 25.952 147.984 26.2613 149.349 26.56C151.589 27.008 153.232 27.6267 154.277 28.416C155.344 29.184 155.877 30.2827 155.877 31.712C155.877 33.1627 155.29 34.2933 154.117 35.104C152.944 35.8933 151.29 36.288 149.157 36.288ZM159.553 15.68C159.553 14.912 159.787 14.3253 160.257 13.92C160.726 13.5147 161.419 13.312 162.337 13.312V21.728C162.038 22.0693 161.803 22.368 161.633 22.624L161.761 22.752C162.422 21.856 163.254 21.1307 164.257 20.576C165.259 20 166.347 19.712 167.521 19.712C169.249 19.712 170.614 20.224 171.617 21.248C172.619 22.272 173.121 23.5947 173.121 25.216V34.24C173.121 34.944 172.886 35.4667 172.417 35.808C171.969 36.128 171.275 36.288 170.337 36.288V25.504C170.337 24.48 170.049 23.6693 169.473 23.072C168.897 22.4747 168.022 22.176 166.849 22.176C166.059 22.176 165.313 22.3467 164.609 22.688C163.926 23.008 163.371 23.456 162.945 24.032C162.539 24.5867 162.337 25.1947 162.337 25.856V34.24C162.337 34.944 162.102 35.4667 161.633 35.808C161.185 36.128 160.491 36.288 159.553 36.288V15.68Z" fill="black"/>
</svg>

<svg xmlns="http://www.w3.org/2000/svg" width="178" height="45" fill="none" xmlns:v="https://vecta.io/nano"><path d="M3.416 26.846C4.876 26.796 6 26.5 6 26.5s-1.124-.296-2.584-.347C3.355 24.937 3.001 24 3.001 24s-.356.937-.416 2.153C1.123 26.204 0 26.5 0 26.5s1.123.296 2.584.346C2.644 28.064 3 29 3 29s.356-.936.415-2.154zm6.138 3.708C11.501 30.473 13 30 13 30s-1.499-.473-3.446-.554C9.474 27.499 9 26 9 26s-.473 1.499-.554 3.446C6.499 29.527 5 30 5 30s1.499.473 3.446.554A14.66 14.66 0 0 0 9 34s.474-1.499.555-3.446h0zm11.723-14.277C22.25 16.237 23 16 23 16s-.749-.237-1.723-.278C21.237 14.749 21 14 21 14s-.237.75-.277 1.722C19.749 15.763 19 16 19 16s.749.237 1.723.277C20.763 17.251 21 18 21 18s.237-.749.277-1.723zm3.569 2.569C26.063 18.796 27 18.5 27 18.5s-.937-.296-2.154-.346C24.796 16.937 24.5 16 24.5 16s-.296.938-.346 2.154c-1.217.05-2.154.346-2.154.346s.937.296 2.154.346A9.18 9.18 0 0 0 24.5 21s.296-.937.347-2.154zM9.448 11.044l-1.108.347 1.013-.53L7.865 8C4.646 11.392 2.619 15.586 2 20c1.56-3.283 4.3-6.112 8-7.894l-.552-1.062h0zm5.683-8.776A22.17 22.17 0 0 0 12 4.146l1.722 4.76c8.088-1.99 16.73 1.914 20.516 9.819 4.367 9.116.623 20.099-8.362 24.529a18.17 18.17 0 0 1-1.595.694c4.829-2.982 7.856-7.983 8.528-13.386-1.2 4.278-4.121 8.039-8.375 10.138a15.69 15.69 0 0 1-10.992 1.109c5.489 3.324 12.296 4.185 18.629 1.954C40.608 38 43.846 26.583 39.24 16.969 34.508 7.093 23.188 2.644 13.252 6.418a20.88 20.88 0 0 1 1.752-.971C25.341.35 37.792 4.719 42.815 15.206c4.843 10.11 1.014 22.213-8.527 27.637l.227-.11c11.014-5.431 15.601-18.892 10.249-30.065S26.145-3.163 15.131 2.268z" fill="#cda274"/><path d="M7.874 3.088c-.94.393-1.156 1.985-.482 3.556l9.311 19.277-1.37.571a.99.99 0 0 0-.536 1.302 1 1 0 0 0 .614.557c1.339 4.5-2.118 10.32-3.305 12.132.943.245 1.897.402 2.85.475 1.859-2.368 2.874-5.378 2.679-8.552a13.07 13.07 0 0 1 .193 1.017c.388 2.7-.117 5.321-1.288 7.576a16.19 16.19 0 0 0 4.409-.714c.442-1.514.605-3.126.438-4.772.09.33.169.666.232 1.01a12.56 12.56 0 0 1 .154 3.483c1.232-.454 2.411-1.059 3.508-1.809a12.57 12.57 0 0 0-2.672-8.044 12.98 12.98 0 0 1 .739.734 12.6 12.6 0 0 1 3.157 6.383c.914-.764 1.753-1.639 2.497-2.621-.279-3.148-5.349-6.972-8.063-8.623.113-.244.127-.532.013-.798-.216-.506-.807-.743-1.318-.531l-1.396.582-7.443-20.06c-.672-1.57-1.98-2.525-2.918-2.132h-.001z" fill="#292929"/><path d="M58.104 36.288c-.661 0-1.216-.224-1.664-.672l7.968-11.168-7.552-10.592c.427-.363.949-.544 1.568-.544a2.82 2.82 0 0 1 1.216.256c.384.171.683.405.896.704l5.376 7.712-.736.992.224.16 6.208-8.864c.213-.299.501-.533.864-.704.384-.171.8-.256 1.248-.256.277 0 .555.053.832.16.299.085.544.213.736.384l-7.552 10.592 7.968 11.168c-.448.448-1.003.672-1.664.672-.384 0-.747-.096-1.088-.288-.32-.171-.597-.416-.832-.736l-6.048-8.576-6.048 8.576c-.235.32-.523.565-.864.736-.32.192-.672.288-1.056.288zm23.404-18.976c-.597 0-1.099-.192-1.504-.576a1.9 1.9 0 0 1-.608-1.44 1.8 1.8 0 0 1 .608-1.408c.405-.384.907-.576 1.504-.576.576 0 1.067.192 1.472.576.405.363.608.832.608 1.408a1.9 1.9 0 0 1-.608 1.44c-.405.384-.896.576-1.472.576zM80.1 21.76c0-.704.224-1.216.672-1.536.469-.341 1.173-.512 2.112-.512V34.24c0 .704-.235 1.227-.704 1.568-.448.32-1.141.48-2.08.48V21.76zm7.983.32c0-1.579.885-2.368 2.656-2.368v2.048c-.277.299-.501.587-.672.864l.128.128c.683-.96 1.408-1.707 2.176-2.24s1.653-.8 2.656-.8c1.941 0 3.275.928 4 2.784 1.216-1.856 2.837-2.784 4.864-2.784 1.514 0 2.677.512 3.488 1.536.832 1.003 1.248 2.325 1.248 3.968v9.024c0 .704-.235 1.227-.704 1.568-.448.32-1.131.48-2.048.48V25.376c0-1.024-.214-1.824-.64-2.4s-1.099-.864-2.016-.864a3.41 3.41 0 0 0-2.464.992c-.683.64-1.024 1.504-1.024 2.592v8.544c0 .704-.224 1.227-.672 1.568-.448.32-1.131.48-2.048.48V25.376c0-1.024-.213-1.824-.64-2.4s-1.099-.864-2.016-.864c-.981 0-1.813.352-2.496 1.056s-1.024 1.568-1.024 2.592v8.48c0 .704-.235 1.227-.704 1.568-.448.32-1.131.48-2.048.48V22.08zm29-5.824h-7.808c0-1.771.832-2.656 2.496-2.656h16.096c0 1.771-.832 2.656-2.496 2.656h-5.28v17.536c0 .811-.256 1.429-.768 1.856s-1.258.64-2.24.64V16.256zm14.999 20.032c-1.834 0-3.317-.491-4.448-1.472-1.109-.981-1.664-2.272-1.664-3.872 0-1.621.587-2.923 1.76-3.904 1.174-1.003 2.72-1.504 4.64-1.504 2.048 0 3.734.725 5.056 2.176l.128-.128-.8-.8V25.44c0-1.088-.341-1.931-1.024-2.528s-1.653-.896-2.912-.896c-2.24 0-3.84.885-4.8 2.656-.341-.171-.629-.395-.864-.672-.213-.299-.32-.597-.32-.896 0-.576.288-1.12.864-1.632.576-.533 1.334-.96 2.272-1.28a9.45 9.45 0 0 1 3.008-.48c2.027 0 3.616.501 4.768 1.504 1.174 1.003 1.76 2.389 1.76 4.16v8.768c0 .747-.213 1.291-.64 1.632s-1.098.512-2.016.512v-1.504l.736-.832-.128-.128c-1.386 1.643-3.178 2.464-5.376 2.464zm.48-2.208c1.323 0 2.358-.277 3.104-.832.768-.555 1.152-1.323 1.152-2.304s-.373-1.76-1.12-2.336-1.77-.864-3.072-.864c-1.216 0-2.176.288-2.88.864-.682.555-1.024 1.333-1.024 2.336s.331 1.781.992 2.336c.683.533 1.632.8 2.848.8zm16.594 2.208c-1.088 0-2.112-.16-3.072-.48-.96-.341-1.739-.821-2.336-1.44a3.09 3.09 0 0 1-.864-2.176c0-1.024.619-1.579 1.856-1.664.213 1.195.715 2.08 1.504 2.656.811.555 1.835.832 3.072.832s2.197-.181 2.88-.544 1.024-.917 1.024-1.664c0-.533-.139-.96-.416-1.28-.277-.341-.725-.629-1.344-.864-.597-.256-1.461-.501-2.592-.736-1.408-.32-2.528-.661-3.36-1.024s-1.472-.843-1.92-1.44c-.427-.597-.64-1.387-.64-2.368 0-.832.256-1.579.768-2.24.512-.683 1.216-1.205 2.112-1.568.917-.384 1.952-.576 3.104-.576 1.067 0 2.069.149 3.008.448.96.299 1.728.725 2.304 1.28.597.555.896 1.195.896 1.92 0 .491-.192.885-.576 1.184-.384.277-.917.437-1.6.48-.064-.939-.448-1.675-1.152-2.208-.683-.555-1.643-.832-2.88-.832-1.024 0-1.835.192-2.432.576s-.896.896-.896 1.536c0 .683.277 1.195.832 1.536.576.32 1.547.629 2.912.928 2.24.448 3.883 1.067 4.928 1.856 1.067.768 1.6 1.867 1.6 3.296 0 1.451-.587 2.581-1.76 3.392-1.173.789-2.827 1.184-4.96 1.184zm10.396-20.608c0-.768.234-1.355.704-1.76s1.162-.608 2.08-.608v8.416c-.299.341-.534.64-.704.896l.128.128c.661-.896 1.493-1.621 2.496-2.176 1.002-.576 2.09-.864 3.264-.864 1.728 0 3.093.512 4.096 1.536s1.504 2.347 1.504 3.968v9.024c0 .704-.235 1.227-.704 1.568-.448.32-1.142.48-2.08.48V25.504c0-1.024-.288-1.835-.864-2.432s-1.451-.896-2.624-.896c-.79 0-1.536.171-2.24.512-.683.32-1.238.768-1.664 1.344a3.02 3.02 0 0 0-.608 1.824v8.384c0 .704-.235 1.227-.704 1.568-.448.32-1.142.48-2.08.48V15.68z" fill="#000"/></svg>
